lib/preview/nrk-logo-preview-nrk-jazz-with-bg.svg

<svg width="83" height="24" viewBox="0 0 83 24" fill="none" xmlns="http://www.w3.org/2000/svg">
<rect width="83" height="24" fill="#481581"/>
<path d="M6.00427 18V6.00109H9.94146V18H6.00427ZM15.2981 7.91078L17.5623 18H13.2534L10.5498 6.00109H12.9664C13.5206 5.9939 14.0583 6.18925 14.4788 6.55039C14.8999 6.89638 15.1892 7.3767 15.2981 7.91078ZM18.1538 18V6.00109H22.091V18H18.1538ZM25.0647 10.5641C24.6405 10.5682 24.223 10.4572 23.8568 10.243C23.4955 10.0341 23.1954 9.73396 22.9865 9.3726C22.7721 9.00633 22.661 8.58876 22.6652 8.16432C22.6604 7.74246 22.7715 7.32738 22.9865 6.96443C23.1976 6.60699 23.4974 6.31009 23.8568 6.10252C24.2231 5.8885 24.6405 5.77751 25.0647 5.78138C25.4865 5.77684 25.9014 5.88793 26.2645 6.10252C26.6203 6.31191 26.9169 6.60856 27.1263 6.96443C27.3411 7.32748 27.4522 7.74249 27.4476 8.16432C27.4515 8.58873 27.3405 9.00623 27.1263 9.3726C26.9191 9.73238 26.6222 10.0323 26.2645 10.243C25.9014 10.458 25.4862 10.5691 25.0642 10.5641H25.0647ZM28.0559 18V6.00109H31.9934V18H28.0559ZM36.978 12.5582C36.9891 12.5699 37.0735 12.7079 37.2314 12.9723C37.3893 13.2367 37.5949 13.5747 37.8482 13.9863C38.1017 14.3977 38.3692 14.8343 38.6506 15.296C38.932 15.7577 39.1969 16.1944 39.4451 16.6058C39.6924 17.0172 39.974 17.4819 40.29 18H35.9641C35.6936 17.5606 35.4484 17.1635 35.2287 16.8086C35.0091 16.4537 34.7756 16.0706 34.5281 15.6594C34.2801 15.2485 34.0349 14.8485 33.7925 14.4595C33.5501 14.0704 33.3418 13.7296 33.1675 13.4371C32.9925 13.1443 32.8713 12.9471 32.8039 12.8455C32.6368 12.5934 32.5379 12.3023 32.517 12.0005C32.5337 11.7109 32.6269 11.431 32.787 11.1891C32.8546 11.0764 32.9786 10.8764 33.1588 10.5891C33.339 10.3018 33.5503 9.96105 33.7925 9.56672C34.0347 9.17239 34.2799 8.7696 34.5281 8.35837C34.7763 7.94715 35.0098 7.56124 35.2287 7.20071C35.4488 6.84055 35.6939 6.44059 35.9641 6.00081H40.29L36.9439 11.4595C36.8404 11.6216 36.782 11.8083 36.7749 12.0005C36.786 12.2023 36.8565 12.3963 36.9774 12.5582H36.978Z" fill="white"/>
<path d="M48.1252 15.2687C48.1283 15.4648 48.0941 15.6596 48.0243 15.8427C47.9611 16.0053 47.8635 16.1521 47.7383 16.2732C47.6082 16.3953 47.4532 16.4875 47.284 16.5433C47.0886 16.6078 46.884 16.6391 46.6784 16.6362C46.5438 16.6362 46.4176 16.6305 46.2998 16.6193C46.1821 16.608 46.0643 16.594 45.9465 16.5771C45.8288 16.5602 45.7111 16.5404 45.5933 16.5177C45.4755 16.495 45.355 16.4698 45.2316 16.4421C45.1082 16.4139 44.9848 16.3829 44.8615 16.3492L44.996 17.8686C45.1531 17.9136 45.3045 17.9557 45.4503 17.9949C45.5961 18.0346 45.7418 18.0681 45.8877 18.0965C46.0378 18.125 46.1895 18.1447 46.3419 18.1553C46.4989 18.1666 46.6727 18.1723 46.8634 18.1725C47.2523 18.1786 47.6402 18.1302 48.0158 18.0287C48.3222 17.9452 48.6103 17.805 48.8654 17.6154C49.0954 17.4413 49.2921 17.2268 49.4459 16.9823C49.5987 16.737 49.7122 16.4691 49.7823 16.1885C49.8563 15.8932 49.893 15.5898 49.8916 15.2853V6H48.1252V15.2687Z" fill="#DBBFFA"/>
<path d="M59.851 16.9232C59.7281 16.9345 59.6042 16.9158 59.49 16.8688C59.3758 16.8218 59.2745 16.7478 59.1949 16.6531C59.039 16.3826 58.9741 16.0688 59.0099 15.7583L59.0436 12.2806C59.0473 11.916 59.002 11.5525 58.909 11.2001C58.8272 10.8909 58.6904 10.5991 58.5052 10.3388C58.3179 10.0844 58.0802 9.87175 57.807 9.71416C57.4895 9.5334 57.1462 9.40253 56.7892 9.32614C56.3526 9.23149 55.9068 9.1862 55.4602 9.19108C55.1058 9.19081 54.7518 9.21328 54.4003 9.25833C54.0682 9.30047 53.7394 9.36541 53.4161 9.45274C53.1163 9.53421 52.8215 9.63287 52.5329 9.7482L52.331 11.1832C52.6114 11.0821 52.8778 10.9977 53.1301 10.9299C53.3825 10.8622 53.6264 10.806 53.862 10.7611C54.0927 10.717 54.3258 10.6861 54.5601 10.6686C54.7897 10.6517 55.0168 10.6431 55.2415 10.6429C55.5845 10.6357 55.9269 10.6755 56.2592 10.7611C56.5018 10.822 56.7247 10.9442 56.907 11.1159C57.0693 11.2828 57.1853 11.4895 57.2434 11.7153C57.3152 11.9936 57.3492 12.2804 57.3444 12.5678L57.3424 12.9913L55.376 13.1249C54.7035 13.1438 54.0409 13.2928 53.4245 13.5636C52.9634 13.7663 52.5653 14.09 52.2721 14.5006C52.0234 14.8661 51.8914 15.2988 51.8936 15.7414C51.8905 16.1568 51.9917 16.5662 52.188 16.9319C52.3939 17.3073 52.7036 17.615 53.0797 17.818C53.5386 18.0576 54.0515 18.1739 54.5685 18.1556C55.0529 18.1667 55.5351 18.0867 55.9901 17.9196C56.3834 17.7651 56.7433 17.5358 57.05 17.2442C57.1664 17.1323 57.2768 17.0142 57.3808 16.8906C57.4135 17.0654 57.4751 17.2336 57.5631 17.388C57.7131 17.6464 57.9436 17.8481 58.2192 17.962C58.5238 18.0849 58.8499 18.1451 59.1781 18.1393C59.2791 18.1393 59.3772 18.1362 59.4726 18.1309C59.5662 18.1252 59.6591 18.111 59.7501 18.0884C59.8399 18.0659 59.9209 18.0465 59.9941 18.0293C60.06 18.0147 60.1246 17.9949 60.1875 17.9702L60.3726 16.8394C60.2797 16.8712 60.1839 16.8939 60.0866 16.9069C60.0085 16.9171 59.9298 16.9226 59.851 16.9232ZM57.05 16.1635C56.8676 16.3082 56.6701 16.4329 56.4611 16.5352C56.2529 16.6367 56.0323 16.7105 55.805 16.7547C55.5694 16.8001 55.33 16.8226 55.09 16.8219C54.8158 16.8299 54.5432 16.778 54.2909 16.67C54.0856 16.5807 53.9125 16.4306 53.7947 16.2397C53.6781 16.0374 53.6198 15.8065 53.6264 15.5729C53.6102 15.2913 53.6871 15.0123 53.8451 14.7791C54.0283 14.5647 54.2765 14.4165 54.5517 14.3571C54.9815 14.2557 55.4225 14.2104 55.8639 14.2223H57.3371L57.3295 15.8979C57.2441 15.9942 57.1505 16.0832 57.05 16.1635Z" fill="#DBBFFA"/>
<path d="M68.3298 10.5754L68.1279 9.37645H61.6341L61.4321 10.7271H66.3177L61.2811 16.8385L61.4829 17.9865H68.3469L68.5319 16.619H63.3899L68.3298 10.5754Z" fill="#DBBFFA"/>
<path d="M71.8686 16.6193L76.809 10.5757L76.6069 9.37676H70.1131L69.9111 10.7274H74.7964L69.7598 16.8388L69.9617 17.9868H76.8256L77.0106 16.6193H71.8686Z" fill="#DBBFFA"/>
</svg>

<svg xmlns="http://www.w3.org/2000/svg" viewBox="0 0 83 24"><path fill="#481581" d="M0 0h83v24H0z"/><path fill="#fff" d="M6.004 18V6.001h3.937V18H6.004Zm9.294-10.09L17.562 18h-4.309L10.55 6.001h2.416a2.276 2.276 0 0 1 1.513.55c.42.345.71.826.82 1.36ZM18.154 18V6.001h3.937V18h-3.937Zm6.91-7.436a2.383 2.383 0 0 1-2.4-2.4 2.303 2.303 0 0 1 .323-1.2 2.411 2.411 0 0 1 3.278-.861c.355.209.652.506.861.861.215.363.326.778.322 1.2a2.4 2.4 0 0 1-1.183 2.079 2.302 2.302 0 0 1-1.2.321ZM28.057 18V6.001h3.937V18h-3.937Zm8.922-5.442c.011.012.096.15.253.414.158.265.364.603.617 1.014a315.936 315.936 0 0 1 1.597 2.62c.247.411.529.876.845 1.394h-4.326c-.27-.44-.516-.837-.735-1.191-.22-.355-.453-.738-.7-1.15-.249-.41-.494-.81-.737-1.2-.242-.389-.45-.73-.625-1.022-.175-.293-.296-.49-.363-.591a1.748 1.748 0 0 1-.287-.845c.017-.29.11-.57.27-.812.068-.113.192-.313.372-.6s.391-.628.633-1.022c.243-.395.488-.797.736-1.209l.7-1.157.736-1.2h4.326l-3.346 5.458a1.08 1.08 0 0 0-.17.542c.012.201.082.395.203.557h.001Z"/><path fill="#DBBFFA" d="M48.125 15.269c.003.196-.03.39-.1.574-.064.162-.161.31-.287.43-.13.122-.285.215-.454.27-.195.065-.4.096-.606.093-.134 0-.26-.005-.378-.017a7.607 7.607 0 0 1-.707-.101 9.058 9.058 0 0 1-.732-.169l.135 1.52c.157.045.308.087.454.126.146.04.292.073.438.101.15.029.302.049.454.06.157.01.33.016.521.017.39.006.777-.043 1.153-.144.306-.084.594-.224.85-.414a2.39 2.39 0 0 0 .58-.633c.153-.245.266-.513.336-.793.074-.296.111-.6.11-.904V6h-1.767v9.269ZM59.851 16.923a.765.765 0 0 1-.656-.27 1.458 1.458 0 0 1-.185-.895l.034-3.477a4.073 4.073 0 0 0-.135-1.08 2.659 2.659 0 0 0-.404-.862 2.285 2.285 0 0 0-.698-.625 3.565 3.565 0 0 0-1.018-.388 5.965 5.965 0 0 0-1.329-.135c-.354 0-.708.022-1.06.067-.332.042-.66.107-.984.195-.3.081-.594.18-.883.295l-.202 1.435a10.067 10.067 0 0 1 1.531-.422c.23-.044.464-.075.698-.092.23-.017.457-.026.681-.026.343-.007.686.032 1.018.118.243.061.466.183.648.355.162.167.278.373.336.6.072.278.106.564.101.852l-.002.423-1.966.134a5.216 5.216 0 0 0-1.951.439c-.462.202-.86.526-1.153.937-.249.365-.38.798-.378 1.24-.003.416.098.825.294 1.19.206.376.516.684.892.887.459.24.971.356 1.489.338.484.01.966-.07 1.421-.236a3.277 3.277 0 0 0 1.06-.676c.116-.112.227-.23.33-.353.033.174.095.343.183.497.15.258.38.46.656.574.305.123.63.183.96.177.1 0 .198-.003.294-.008a1.54 1.54 0 0 0 .277-.043l.244-.059c.066-.014.13-.034.194-.059l.185-1.13a1.494 1.494 0 0 1-.286.067c-.079.01-.157.016-.236.016Zm-2.801-.76a3.24 3.24 0 0 1-.589.372 2.653 2.653 0 0 1-.656.22 3.721 3.721 0 0 1-.715.067 1.89 1.89 0 0 1-.8-.152 1.098 1.098 0 0 1-.495-.43 1.264 1.264 0 0 1-.169-.667c-.016-.282.061-.56.22-.794.182-.214.43-.363.706-.422.43-.101.87-.147 1.312-.135h1.473l-.008 1.676a2.257 2.257 0 0 1-.279.265ZM68.33 10.575l-.202-1.199h-6.494l-.202 1.351h4.886l-5.037 6.111.202 1.148h6.864l.185-1.367H63.39l4.94-6.044ZM71.869 16.62l4.94-6.044-.202-1.2h-6.494l-.202 1.351h4.885L69.76 16.84l.202 1.148h6.864l.185-1.368h-5.142Z"/></svg>
